assets/images/kids/empty_basket.svg

<svg width="285" height="174" viewBox="0 0 285 174" fill="none" xmlns="http://www.w3.org/2000/svg">
<path d="M7.52269 71.4392V71.9529C7.52269 126.175 7.9535 171.149 142.599 171.149C277.245 171.149 277.676 126.042 277.676 71.9364" stroke="#3F2A25" stroke-width="2" stroke-linecap="round" stroke-linejoin="round"/>
<path d="M7.52269 71.953C2.08781 65.0924 2.08781 57.0718 2.08781 48.5044" stroke="#3F2A25" stroke-width="2" stroke-linecap="round" stroke-linejoin="round"/>
<path d="M283.094 48.5044C283.094 57.0718 283.094 65.0758 277.676 71.9364" stroke="#3F2A25" stroke-width="2" stroke-linecap="round" stroke-linejoin="round"/>
<path d="M2.60147 37.1527V37.1033" stroke="#3F2A25" stroke-width="2" stroke-linecap="round" stroke-linejoin="round"/>
<path d="M2.08781 48.4878C2.08781 47.0793 2.08781 45.6707 2.12095 44.2953C2.12095 43.765 2.13752 43.2347 2.15409 42.721C2.22037 40.8318 2.35293 38.9758 2.61805 37.153V37.1033" stroke="#3F2A25" stroke-width="2" stroke-linecap="round" stroke-linejoin="round"/>
<path d="M192.425 3.03247H192.408" stroke="#3F2A25" stroke-width="2" stroke-linecap="round" stroke-linejoin="round"/>
<path d="M283.111 47.825C283.111 34.7336 283.111 22.9182 263.708 14.5496C256.417 11.401 246.392 8.74959 232.573 6.7113C228.232 6.04844 223.51 5.46843 218.389 4.95472C215.622 4.67301 212.723 4.40787 209.69 4.1593C204.338 3.72844 198.589 3.3473 192.425 3.03244H192.408C191.265 2.98273 190.105 2.91644 188.928 2.86673C175.49 2.25359 160.147 1.93872 142.616 1.93872C130.139 1.93872 118.772 2.10444 108.416 2.41929C99.0043 2.70101 90.4211 3.09873 82.6168 3.62901C60.3139 5.13701 44.1915 7.57301 32.5429 10.7713C27.3566 12.1964 23.065 13.7542 19.5025 15.461C12.0627 19.0073 7.80426 23.1336 5.3685 27.6907C2.88304 32.3142 2.28653 37.385 2.15397 42.721C2.12083 43.9142 2.10426 45.1404 2.10426 46.3833V47.825" stroke="#3F2A25" stroke-width="2" stroke-linecap="round" stroke-linejoin="round"/>
<path d="M2.12096 46.8805C2.10439 46.0022 2.12096 45.1405 2.13753 44.2954C2.13753 43.7651 2.1541 43.2348 2.17067 42.7211C2.23695 40.832 2.36951 38.976 2.61806 37.1531C3.23114 41.064 4.44074 44.7428 6.89306 48.1897C6.97591 48.3057 7.05875 48.4051 7.1416 48.5211C14.5814 58.464 33.007 66.0537 78.5739 69.4508C89.4436 70.2794 101.838 70.8428 115.988 71.1577C124.24 71.34 133.122 71.4394 142.599 71.4394C152.077 71.4394 161.075 71.34 169.376 71.1577C174.977 71.0417 180.312 70.876 185.383 70.6605C189.724 70.4948 193.866 70.2794 197.826 70.0474C249.905 66.9983 270.187 59.0771 278.074 48.488C278.173 48.372 278.256 48.2725 278.322 48.1565C280.824 44.7263 282.001 40.9645 282.581 37.0371H282.597C283.111 40.7491 283.111 44.5937 283.111 48.5045C283.111 57.2211 283.111 65.3577 277.411 72.3011C266.508 85.5417 234.81 94.3908 142.616 94.3908C50.4219 94.3908 18.7073 85.5417 7.80439 72.3011C2.10439 65.3577 2.10439 57.2211 2.10439 48.5045C2.10439 47.9577 2.10439 47.4108 2.12096 46.8805Z" fill="#BC7171"/>
<path d="M263.724 14.5496C277.328 20.4159 281.388 28.3204 282.597 37.037H282.581C282.001 40.9644 280.824 44.7261 278.322 48.1564C278.256 48.0404 278.173 47.9244 278.074 47.8084C275.688 44.5936 272.142 41.6273 266.906 38.9593C261.305 36.1256 253.749 33.6233 243.625 31.5519C233.485 29.497 220.742 27.8399 204.736 26.713C198.373 26.2656 191.48 25.8844 184.057 25.6027C171.829 25.1221 158.076 24.8736 142.633 24.8736C134.48 24.8736 126.825 24.9399 119.601 25.0724C119.385 25.0724 119.17 25.0724 118.954 25.089C115.823 25.1553 112.807 25.2216 109.858 25.3044C108.847 25.3376 107.869 25.3707 106.875 25.4039C101.241 25.5862 95.9058 25.8016 90.8355 26.0667C55.691 27.9559 34.4651 31.933 21.6401 37.4347C14.5483 40.4673 10.0247 43.9804 7.1416 47.8416L6.89306 48.1896C4.44074 44.7427 3.23114 41.0639 2.61806 37.153C2.36951 38.9759 2.23695 40.8319 2.17067 42.721C2.30323 37.385 2.88317 32.3142 5.36863 27.6907C7.82096 23.1336 12.0794 19.0073 19.5192 15.461C23.0817 13.7542 27.3733 12.1964 32.5596 10.7713C44.2082 7.57301 60.314 5.13701 82.6335 3.62901C90.4378 3.09873 99.021 2.70101 108.433 2.41929C118.789 2.10444 130.156 1.93872 142.633 1.93872C160.163 1.93872 175.507 2.25359 188.945 2.86673C190.122 2.91644 191.281 2.98273 192.425 3.03244H192.441C198.605 3.3473 204.338 3.72844 209.707 4.1593C212.739 4.40787 215.639 4.67301 218.406 4.95472C223.526 5.46843 228.232 6.04844 232.59 6.7113C246.409 8.74959 256.434 11.401 263.724 14.5496Z" fill="#BC7171"/>
<path d="M278.074 47.8084C278.173 47.9244 278.256 48.0404 278.322 48.1564C278.256 48.2724 278.173 48.3718 278.074 48.4878C270.187 59.077 249.905 66.9981 197.826 70.0473C193.866 70.2793 189.724 70.4947 185.383 70.6604C180.312 70.8758 174.977 71.0415 169.376 71.1575C161.075 71.3398 152.177 71.4392 142.599 71.4392C133.022 71.4392 124.24 71.3398 115.988 71.1575C101.838 70.8427 89.4436 70.2792 78.5739 69.4672C33.007 66.0535 14.5814 58.4638 7.1416 48.521C7.05875 48.405 6.97591 48.3055 6.89306 48.1895L7.1416 47.8415C10.0247 43.9804 14.5483 40.4672 21.6401 37.4347C34.4651 31.933 55.691 27.9558 90.8355 26.0667C95.9058 25.8015 101.241 25.5861 106.875 25.4038C107.869 25.3707 108.847 25.3375 109.858 25.3044C112.807 25.2215 115.823 25.1552 118.954 25.089C119.17 25.0724 119.385 25.0724 119.601 25.0724C126.825 24.9398 134.48 24.8735 142.633 24.8735C158.076 24.8735 171.829 25.1221 184.057 25.6027C191.48 25.8844 198.373 26.2655 204.736 26.713C220.742 27.8398 233.485 29.497 243.625 31.5518C253.749 33.6232 261.305 36.1255 266.906 38.9592C272.142 41.6272 275.688 44.5935 278.074 47.8084Z" fill="#BC7171"/>
<path d="M277.411 72.301L277.693 72.5661C277.693 127.02 277.693 171.15 142.616 171.15C7.53929 171.15 7.53928 127.02 7.53928 72.5661L7.80439 72.301C18.7073 85.5416 50.4053 94.3907 142.616 94.3907C234.827 94.3907 266.508 85.5416 277.411 72.301Z" fill="#BC7171"/>
<path d="M278.422 48.0073C280.841 44.5936 282.034 40.8816 282.597 37.0039H282.614C283.128 40.7159 283.128 44.577 283.128 48.4713C283.128 57.1879 283.128 65.3245 277.428 72.2679C272.987 77.6702 265.1 82.3268 251.065 85.9559C255.705 81.6639 254.959 68.4896 251.181 63.3525L251.098 63.021C265.845 59.193 273.815 54.2216 278.107 48.4713C278.223 48.3222 278.339 48.1565 278.422 48.0073Z" fill="#AD7766"/>
<path d="M278.107 47.6097C275.704 44.3948 272.158 41.4285 266.922 38.7605C256.434 33.4411 239.185 29.348 210.801 26.9783C214.33 20.0183 210.883 8.10341 205.134 3.81141V3.61255C206.708 3.72855 208.232 3.84455 209.724 3.96055C212.756 4.20912 215.656 4.47427 218.423 4.75598C223.543 5.2697 228.265 5.84969 232.606 6.51255C246.426 8.55083 256.45 11.2023 263.741 14.3508C277.378 20.2337 281.421 28.2211 282.614 37.004H282.597C282.034 40.8817 280.841 44.5937 278.422 48.0074L278.339 47.9577C278.273 47.8417 278.19 47.7257 278.107 47.6097Z" fill="#AD7766"/>
<path d="M256.732 92.9658C255.589 104.085 252.507 120.358 244.388 131.975C219.699 167.289 171.133 169.791 167.189 170.586H167.156C159.517 170.951 151.365 171.133 142.633 171.133C7.55587 171.133 7.55586 126.987 7.55586 72.5498L7.83756 72.3013C18.4588 85.1441 48.6323 93.8275 134.613 94.3412V94.5235C169.608 100.373 227.155 99.727 256.732 92.9658Z" fill="#C6977B"/>
<path d="M256.732 92.9658C227.155 99.7269 169.608 100.373 134.613 94.5235V94.3412C137.231 94.3578 139.899 94.3578 142.633 94.3578C197.28 94.3578 230.668 91.2423 251.065 85.9561C265.1 82.3269 272.987 77.6704 277.428 72.2681L277.709 72.5498C277.709 123.457 277.709 165.383 167.189 170.586C171.133 169.791 219.699 167.289 244.388 131.975C252.507 120.358 255.589 104.085 256.732 92.9658Z" fill="#AD7766"/>
<path d="M7.15819 48.4879C7.0422 48.3388 6.94278 48.1897 6.84336 48.0405L6.92621 47.9908C6.99249 47.8748 7.07534 47.7588 7.15819 47.6428C10.0413 43.7817 14.5649 40.2685 21.6567 37.2525C34.4817 31.7342 55.7076 27.7571 90.8687 25.8679C95.9224 25.6028 101.258 25.3874 106.908 25.2051C107.886 25.1719 108.863 25.1388 109.874 25.1057C112.824 25.0228 115.856 24.9565 118.971 24.8902C119.186 24.8737 119.402 24.8737 119.617 24.8737C126.842 24.7411 134.513 24.6748 142.649 24.6748C158.092 24.6748 171.845 24.9234 184.09 25.404C191.513 25.6857 198.39 26.0668 204.753 26.5142H204.769C206.84 26.6634 208.845 26.8125 210.801 26.9782C239.185 29.3479 256.434 33.4411 266.922 38.7605C272.158 41.4285 275.704 44.3948 278.107 47.6097C278.19 47.7257 278.273 47.8417 278.339 47.9577L278.422 48.0074C278.339 48.1565 278.223 48.3222 278.107 48.4714C273.815 54.2217 265.845 59.1931 251.098 63.0211C230.684 68.3074 197.28 71.4228 142.616 71.4228C48.4832 71.4228 17.3983 62.1925 7.15819 48.4879Z" fill="#AD7766"/>
<path d="M2.65121 37.1201C3.24772 40.9813 4.4076 44.627 6.84336 48.0407C6.94278 48.1898 7.0422 48.339 7.15819 48.4881C17.3983 62.1927 48.4832 71.423 142.616 71.423C197.28 71.423 230.684 68.3075 251.098 63.0213L251.181 63.3527C254.959 68.4898 255.705 81.6641 251.065 85.9561C230.668 91.2424 197.28 94.3578 142.633 94.3578C139.899 94.3578 137.231 94.3578 134.613 94.3412C48.6323 93.8275 18.4588 85.1441 7.83756 72.3013C2.12099 65.3578 2.12098 57.2047 2.12098 48.4715C2.12098 47.7093 2.12098 46.947 2.13755 46.1847C2.13755 44.9584 2.15412 43.7321 2.18726 42.5224C2.25354 40.683 2.3861 38.8767 2.63464 37.1201H2.65121Z" fill="#C6977B"/>
<path d="M6.84336 48.0406C4.4076 44.6269 3.24772 40.9812 2.65121 37.12H2.63464C2.3861 38.8766 2.25354 40.6829 2.18726 42.5223C2.31982 37.1863 2.91633 32.1154 5.4018 27.492C7.83755 22.9349 12.096 18.8086 19.5358 15.2623C23.0983 13.5555 27.3899 11.9977 32.5762 10.5726C44.2248 7.37431 60.3471 4.93831 82.65 3.43031C90.4544 2.90002 99.0375 2.5023 108.449 2.22059C118.805 1.90573 130.172 1.75659 142.649 1.75659C160.18 1.75659 175.524 2.05488 188.962 2.66803C190.138 2.71774 191.298 2.78402 192.441 2.83374H192.458C196.899 3.06574 201.14 3.31431 205.15 3.6126V3.81146C210.883 8.10346 214.33 20.0183 210.801 26.9783C208.845 26.8126 206.84 26.6635 204.769 26.5143H204.753C198.39 26.0669 191.513 25.6857 184.09 25.404C171.845 24.9235 158.092 24.6749 142.649 24.6749C134.513 24.6749 126.842 24.7412 119.617 24.8737C119.402 24.8737 119.186 24.8737 118.971 24.8903C115.856 24.9566 112.824 25.0229 109.874 25.1057C108.863 25.1389 107.886 25.172 106.908 25.2052C101.258 25.3875 95.9224 25.6029 90.8686 25.868C55.7076 27.7572 34.4817 31.7343 21.6567 37.2526C14.5649 40.2686 10.0413 43.7817 7.15819 47.6429C7.07534 47.7589 6.99249 47.8749 6.92621 47.9909L6.84336 48.0406Z" fill="#C6977B"/>
<path d="M204.753 26.7131H204.736" stroke="#3F2A25" stroke-linecap="round" stroke-linejoin="round"/>
<path d="M185.399 70.6769L185.383 70.6604" stroke="#3F2A25" stroke-linecap="round" stroke-linejoin="round"/>
<path d="M197.892 70.1792C197.892 70.1792 197.859 70.0968 197.826 70.0474" stroke="#3F2A25" stroke-linecap="round" stroke-linejoin="round"/>
<path d="M277.709 72.5662C277.709 127.003 277.709 171.15 142.633 171.15C7.55585 171.15 7.55584 127.02 7.55584 72.5662" stroke="#3F2A25" stroke-linecap="round" stroke-linejoin="round"/>
<path d="M283.128 48.5044C283.128 73.8421 283.128 94.3907 142.616 94.3907C2.10439 94.3907 2.10439 73.8421 2.10439 48.5044" stroke="#3F2A25" stroke-linecap="round" stroke-linejoin="round"/>
<path d="M2.63462 37.1034V37.1531C3.23114 41.064 4.44073 44.7428 6.90962 48.1897C6.9759 48.3057 7.05875 48.4051 7.1416 48.5211C14.5814 58.464 33.007 66.0537 78.5739 69.4508C89.4436 70.2794 101.838 70.8428 116.005 71.1577C124.257 71.34 133.122 71.4394 142.616 71.4394C152.111 71.4394 161.075 71.34 169.376 71.1577C174.977 71.0417 180.312 70.876 185.383 70.6605C189.724 70.4948 193.866 70.2794 197.826 70.0474C249.922 66.9983 270.203 59.0771 278.09 48.488C278.173 48.372 278.256 48.2725 278.322 48.1565C280.824 44.7263 282.001 40.9645 282.581 37.0371" stroke="#3F2A25" stroke-linecap="round" stroke-linejoin="round"/>
<path d="M2.10439 48.4878C2.10439 47.0793 2.10439 45.6707 2.13753 44.2953C2.13753 43.765 2.1541 43.2347 2.17067 42.721C2.23695 40.8318 2.36951 38.9758 2.63463 37.153V37.1033" stroke="#3F2A25" stroke-linecap="round" stroke-linejoin="round"/>
<path d="M192.441 3.03247H192.425" stroke="#3F2A25" stroke-linecap="round" stroke-linejoin="round"/>
<path d="M86.5274 92.9324H86.5108M185.399 70.677H185.383" stroke="#3F2A25" stroke-linecap="round" stroke-linejoin="round"/>
<path d="M185.399 70.6769L185.383 70.6604" stroke="#3F2A25" stroke-linecap="round" stroke-linejoin="round"/>
<path d="M116.005 71.1739V71.1575" stroke="#3F2A25" stroke-linecap="round" stroke-linejoin="round"/>
<path d="M169.376 71.1575L169.36 71.1739" stroke="#3F2A25" stroke-linecap="round" stroke-linejoin="round"/>
<path d="M283.128 47.825C283.128 34.7336 283.128 22.9182 263.724 14.5496C256.434 11.401 246.409 8.74959 232.59 6.7113C228.248 6.04844 223.526 5.46843 218.406 4.95472C215.639 4.67301 212.739 4.40787 209.707 4.1593C204.355 3.72844 198.605 3.3473 192.441 3.03244H192.425C191.281 2.98273 190.121 2.91644 188.945 2.86673C175.507 2.25359 160.163 1.93872 142.632 1.93872C130.155 1.93872 118.789 2.10444 108.432 2.41929C99.0209 2.70101 90.4377 3.09873 82.6334 3.62901C60.3304 5.13701 44.2081 7.57301 32.5595 10.7713C27.3732 12.1964 23.0816 13.7542 19.5191 15.461C12.0793 19.0073 7.82085 23.1336 5.38509 27.6907C2.89963 32.3142 2.30312 37.385 2.17056 42.721C2.13742 43.9142 2.12084 45.1404 2.12084 46.3833V47.825" stroke="#3F2A25" stroke-linecap="round" stroke-linejoin="round"/>
<path d="M6.90962 48.1895C6.9759 48.0735 7.05875 47.9575 7.1416 47.8415C10.0247 43.9804 14.5483 40.4672 21.6401 37.4347C34.4651 31.933 55.691 27.9558 90.8521 26.0667C95.9059 25.8015 101.241 25.5861 106.892 25.4038C107.869 25.3707 108.847 25.3375 109.858 25.3044C112.807 25.2215 115.839 25.1552 118.954 25.089C119.17 25.0724 119.385 25.0724 119.601 25.0724C126.825 24.9398 134.497 24.8735 142.633 24.8735C158.076 24.8735 171.829 25.1221 184.074 25.6027C191.497 25.8844 198.373 26.2655 204.736 26.713C236.732 28.9833 255.672 33.2752 266.889 38.9592C272.125 41.6272 275.671 44.5935 278.074 47.8084C278.157 47.9244 278.24 48.0404 278.306 48.1564" stroke="#3F2A25" stroke-linecap="round" stroke-linejoin="round"/>
</svg>

<svg xmlns="http://www.w3.org/2000/svg" width="285" height="174" fill="none" xmlns:v="https://vecta.io/nano"><g stroke="#3f2a25" stroke-width="2" stroke-linecap="round" stroke-linejoin="round"><path d="M7.523 71.439v.514c0 54.222.431 99.196 135.076 99.196s135.077-45.107 135.077-99.213"/><path d="M7.523 71.953c-5.435-6.861-5.435-14.881-5.435-23.449m281.006 0c0 8.567 0 16.571-5.418 23.432M2.601 37.153v-.049"/><path d="M2.088 48.488l.033-4.193.033-1.574.464-5.618M192.425 3.032h-.017"/><path d="M283.111 47.825c0-13.091 0-24.907-19.403-33.275-7.291-3.149-17.316-5.8-31.135-7.838-4.341-.663-9.063-1.243-14.184-1.757l-8.699-.795c-5.352-.431-11.101-.812-17.265-1.127h-.017l-3.48-.166c-13.438-.613-28.781-.928-46.312-.928l-34.2.481c-9.412.282-17.995.679-25.799 1.21-22.303 1.508-38.425 3.944-50.074 7.142-5.186 1.425-9.478 2.983-13.04 4.69-7.44 3.546-11.698 7.673-14.134 12.23-2.485 4.624-3.082 9.694-3.215 15.03l-.05 3.662v1.442"/></g><g fill="#bc7171"><path d="M2.121 46.881l.017-2.585.033-1.574.447-5.568c.613 3.911 1.823 7.59 4.275 11.037.083.116.166.215.249.331 7.44 9.943 25.865 17.533 71.432 20.93 10.87.829 23.264 1.392 37.414 1.707l26.611.282 26.777-.282 16.007-.497 12.443-.613c52.079-3.049 72.361-10.97 80.248-21.559.099-.116.182-.215.248-.331 2.502-3.43 3.679-7.192 4.259-11.119h.016c.514 3.712.514 7.557.514 11.467 0 8.717 0 16.853-5.7 23.797-10.903 13.241-42.601 22.09-134.795 22.09S18.707 85.542 7.804 72.301c-5.7-6.943-5.7-15.08-5.7-23.797l.017-1.624z"/><path d="M263.724 14.55c13.604 5.866 17.664 13.771 18.873 22.487h-.016c-.58 3.927-1.757 7.689-4.259 11.119-.066-.116-.149-.232-.248-.348-2.386-3.215-5.932-6.181-11.168-8.849-5.601-2.834-13.157-5.336-23.281-7.407-10.14-2.055-22.883-3.712-38.889-4.839-6.363-.447-13.256-.829-20.679-1.11-12.228-.481-25.981-.729-41.424-.729l-23.032.199c-.216 0-.431 0-.647.017l-9.096.215-2.983.099-16.04.663c-35.144 1.889-56.37 5.866-69.195 11.368-7.092 3.033-11.615 6.546-14.498 10.407l-.249.348c-2.452-3.447-3.662-7.126-4.275-11.037-.249 1.823-.381 3.679-.447 5.568.133-5.336.712-10.407 3.198-15.03 2.452-4.557 6.711-8.683 14.151-12.23 3.563-1.707 7.854-3.265 13.04-4.69 11.649-3.198 27.754-5.634 50.074-7.142 7.804-.53 16.388-.928 25.8-1.21 10.356-.315 21.723-.481 34.2-.481 17.53 0 32.874.315 46.312.928l3.48.166h.016l17.266 1.127 8.699.795c5.12.514 9.826 1.094 14.184 1.757 13.819 2.038 23.844 4.69 31.134 7.838z"/><path d="M278.074 47.808c.099.116.182.232.248.348-.066.116-.149.215-.248.331-7.887 10.589-28.169 18.51-80.248 21.56l-12.443.613-16.007.497-26.777.282c-9.577 0-18.359-.099-26.611-.282-14.15-.315-26.544-.878-37.414-1.69-45.567-3.414-63.992-11.003-71.432-20.946-.083-.116-.166-.215-.249-.331l.249-.348c2.883-3.861 7.407-7.374 14.499-10.407 12.825-5.502 34.051-9.479 69.195-11.368l16.04-.663 2.983-.099 9.096-.215c.216-.017.431-.017.647-.017l23.032-.199c15.443 0 29.196.249 41.424.729a641.9 641.9 0 0 1 20.679 1.11c16.006 1.127 28.749 2.784 38.889 4.839 10.124 2.071 17.68 4.574 23.281 7.407 5.236 2.668 8.782 5.634 11.168 8.849zm-.663 24.493l.282.265c0 54.454 0 98.584-135.077 98.584S7.539 127.02 7.539 72.566l.265-.265c10.903 13.241 42.601 22.09 134.812 22.09s123.892-8.849 134.795-22.09z"/></g><g fill="#ad7766"><path d="M278.422 48.007c2.419-3.414 3.612-7.126 4.175-11.003h.017c.514 3.712.514 7.573.514 11.467 0 8.717 0 16.853-5.7 23.797-4.441 5.402-12.328 10.059-26.363 13.688 4.64-4.292 3.894-17.466.116-22.603l-.083-.331c14.747-3.828 22.717-8.799 27.009-14.55.116-.149.232-.315.315-.464z"/><path d="M278.107 47.61c-2.403-3.215-5.949-6.181-11.185-8.849-10.488-5.319-27.737-9.413-56.121-11.782 3.529-6.96.082-18.875-5.667-23.167v-.199l4.59.348 8.699.795c5.12.514 9.842 1.094 14.183 1.757 13.82 2.038 23.844 4.69 31.135 7.838 13.637 5.883 17.68 13.87 18.873 22.653h-.017c-.563 3.878-1.756 7.59-4.175 11.003l-.083-.05c-.066-.116-.149-.232-.232-.348z"/></g><path d="M256.732 92.966c-1.143 11.119-4.225 27.392-12.344 39.009-24.689 35.314-73.255 37.816-77.199 38.611h-.033c-7.639.365-15.791.547-24.523.547-135.077 0-135.077-44.146-135.077-98.583l.282-.249c10.621 12.843 40.795 21.526 126.775 22.04v.182c34.995 5.85 92.542 5.204 122.119-1.558z" fill="#c6977b"/><path d="M256.732 92.966c-29.577 6.761-87.124 7.407-122.119 1.558v-.182l8.02.017c54.647 0 88.035-3.115 108.432-8.402 14.035-3.629 21.922-8.286 26.363-13.688l.281.282c0 50.907 0 92.833-110.52 98.036 3.944-.795 52.51-3.297 77.199-38.611 8.119-11.617 11.201-27.89 12.344-39.009zM7.158 48.488l-.315-.447.083-.05c.066-.116.149-.232.232-.348 2.883-3.861 7.407-7.374 14.499-10.39 12.825-5.518 34.051-9.495 69.212-11.385l16.039-.663 2.966-.099 9.097-.215c.215-.017.431-.017.646-.017l23.032-.199c15.443 0 29.196.249 41.441.729 7.423.282 14.3.663 20.663 1.11h.016l6.032.464c28.384 2.37 45.633 6.463 56.121 11.782 5.236 2.668 8.782 5.634 11.185 8.849.083.116.166.232.232.348l.083.05a3.85 3.85 0 0 1-.315.464c-4.292 5.75-12.262 10.722-27.009 14.55-20.414 5.286-53.818 8.402-108.482 8.402-94.133 0-125.218-9.23-135.458-22.935z" fill="#ad7766"/><g fill="#c6977b"><path d="M2.651 37.12c.597 3.861 1.756 7.507 4.192 10.921.099.149.199.298.315.447 10.24 13.705 41.325 22.935 135.458 22.935 54.664 0 88.068-3.115 108.482-8.402l.083.331c3.778 5.137 4.524 18.311-.116 22.603-20.397 5.286-53.785 8.402-108.432 8.402-2.734 0-5.402 0-8.02-.017-85.981-.514-116.154-9.197-126.775-22.04-5.717-6.943-5.717-15.097-5.717-23.83l.017-2.287.05-3.662c.066-1.839.199-3.646.447-5.402h.017z"/><path d="M6.843 48.041c-2.436-3.414-3.596-7.059-4.192-10.921h-.017c-.249 1.757-.381 3.563-.447 5.402.133-5.336.729-10.407 3.215-15.03 2.436-4.557 6.694-8.683 14.134-12.23 3.563-1.707 7.854-3.265 13.04-4.69C44.225 7.374 60.347 4.938 82.65 3.43c7.804-.53 16.387-.928 25.799-1.21 10.356-.315 21.723-.464 34.2-.464 17.531 0 32.875.298 46.313.911l3.479.166h.017l12.692.779v.199c5.733 4.292 9.18 16.207 5.651 23.167l-6.032-.464h-.016a641.07 641.07 0 0 0-20.663-1.11c-12.245-.48-25.998-.729-41.441-.729l-23.032.199c-.215 0-.431 0-.646.017l-9.097.215-2.966.1-16.039.663c-35.161 1.889-56.387 5.866-69.212 11.385-7.092 3.016-11.615 6.529-14.499 10.39a4.23 4.23 0 0 0-.232.348l-.083.05z"/></g><g stroke="#3f2a25" stroke-linecap="round" stroke-linejoin="round"><path d="M204.753 26.713h-.017m-19.337 43.964l-.016-.017m12.509-.481s-.033-.082-.066-.132m79.883 2.519c0 54.437 0 98.584-135.076 98.584S7.556 127.02 7.556 72.566m275.572-24.062c0 25.338 0 45.886-140.512 45.886S2.104 73.842 2.104 48.504"/><path d="M2.635 37.103v.05c.597 3.911 1.806 7.59 4.275 11.037.066.116.149.215.232.331 7.44 9.943 25.865 17.533 71.432 20.93 10.87.829 23.264 1.392 37.431 1.707l26.611.282 26.76-.282 16.007-.497 12.443-.613c52.096-3.049 72.377-10.97 80.264-21.559.083-.116.166-.215.232-.331 2.502-3.43 3.679-7.192 4.259-11.119M2.104 48.488l.033-4.193.033-1.574.464-5.618M192.441 3.032h-.016m-105.898 89.9h-.017m98.888-22.255h-.016"/><path d="M185.399 70.677l-.016-.017m-69.378.514v-.016m53.371 0l-.016.016m113.768-23.349c0-13.091 0-24.907-19.404-33.275-7.29-3.149-17.315-5.8-31.134-7.838-4.342-.663-9.064-1.243-14.184-1.757l-8.699-.795a591.09 591.09 0 0 0-17.266-1.127h-.016l-3.48-.166c-13.438-.613-28.782-.928-46.313-.928l-34.2.481c-9.411.282-17.994.679-25.799 1.21C60.33 5.137 44.208 7.573 32.56 10.771c-5.186 1.425-9.478 2.983-13.04 4.69-7.44 3.546-11.698 7.673-14.134 12.23-2.485 4.624-3.082 9.694-3.215 15.03l-.05 3.662v1.442m4.789.365c.066-.116.149-.232.232-.348 2.883-3.861 7.407-7.374 14.499-10.407 12.825-5.502 34.051-9.479 69.212-11.368l16.04-.663 2.966-.099 9.096-.215c.216-.017.431-.017.647-.017l23.032-.199c15.443 0 29.196.249 41.441.729 7.423.282 14.299.663 20.662 1.11 31.996 2.27 50.936 6.562 62.153 12.246 5.236 2.668 8.782 5.634 11.185 8.849.083.116.166.232.232.348"/></g></svg>
